dist/svg/u1FA91.svg

<?xml version="1.0" encoding="UTF-8"?><svg id="a" xmlns="http://www.w3.org/2000/svg" viewBox="0 0 40 40"><g><path d="M30.156,36.057l-1.83-15.468h1.42c1.068,0,1.967,.799,2.093,1.86l1.564,13.224c.115,.972-.645,1.827-1.624,1.827h0c-.829,0-1.526-.62-1.624-1.443Z" fill="#6e4944"/><path d="M13.221,36.057l1.83-15.468h-3.293l-1.784,15.084c-.115,.972,.645,1.827,1.624,1.827h0c.829,0,1.526-.62,1.624-1.443Z" fill="#6e4944"/><path d="M27.808,18.916h-11.46c-.988,0-1.852-.663-2.108-1.617l-3.484-13c-.248-.952-1.042-1.718-2.023-1.792-1.436-.109-2.412,1.179-2.084,2.435l4.815,18.022H31.856c0-2.236-1.813-4.049-4.049-4.049Z" fill="#956759"/></g><rect width="40" height="40" fill="none"/></svg>

<svg id="Layer_1" data-name="Layer 1" xmlns="http://www.w3.org/2000/svg" viewBox="0 0 40 40"><defs><style>.cls-1{fill:#6e4944;}.cls-2{fill:#956759;}.cls-3{fill:none;}</style></defs><path class="cls-1" d="M30.156,36.057l-1.83-15.468h1.42a2.107,2.107,0,0,1,2.093,1.86L33.4,35.673A1.635,1.635,0,0,1,31.78,37.5h0A1.635,1.635,0,0,1,30.156,36.057Z"/><path class="cls-1" d="M13.221,36.057l1.83-15.468H11.758L9.974,35.673A1.635,1.635,0,0,0,11.6,37.5h0A1.635,1.635,0,0,0,13.221,36.057Z"/><path class="cls-2" d="M27.808,18.916H16.348A2.183,2.183,0,0,1,14.24,17.3l-3.484-13A2.345,2.345,0,0,0,8.733,2.506,1.955,1.955,0,0,0,6.649,4.942l4.815,18.022H31.856A4.048,4.048,0,0,0,27.808,18.916Z"/><rect class="cls-3" width="40" height="40"/></svg>
